icon/gr/document-store.svg

<svg xmlns="http://www.w3.org/2000/svg" width="24" height="24"><path fill="none" stroke="#000" stroke-width="2" d="M4.998 7V1H19.5L23 4.5V23h-6m1-22v5h5M3 12s1-2 6-2 6 2 6 2v9s-1 2-6 2-6-2-6-2v-9Zm0 5s2 2 6 2 6-2 6-2M3 13s2 2 6 2 6-2 6-2"/></svg>

<svg xmlns="http://www.w3.org/2000/svg" viewBox="0 0 24 24" height="1em" width="1em">
  <path fill="none" stroke="#000" stroke-width="2" d="M4.99787498,6.99999999 L4.99787498,0.999999992 L19.4999998,0.999999992 L22.9999998,4.50000005 L23,23 L17,23 M18,1 L18,6 L23,6 M3,12 C3,12 4,10 9,10 C14,10 15,12 15,12 L15,21 C15,21 14,23 9,23 C4,23 3,21 3,21 L3,12 Z M3,17 C3,17 5,19 9,19 C13,19 15,17 15,17 M3,13 C3,13 5,15 9,15 C13,15 15,13 15,13"/>
</svg>
